!!!COM: Palestrina, Giovanni Perluigi da
!!!OPR: Panem nostrum
!!!OTL: Agnus I
**kern	**kern	**kern	**kern	**kern
*Ibass	*Ibarit	*Itenor	*Icalto	*Icant
!Bassus	!Baritone	!Tenor	!Altus	!Cantus
*clefF4	*clefF4	*clefGv2	*clefG2	*clefG2
*k[b-]	*k[b-]	*k[b-]	*k[b-]	*k[b-]
*G:dor	*G:dor	*G:dor	*G:dor	*G:dor
*M4/2	*M4/2	*M4/2	*M4/2	*M4/2
=1	=1	=1	=1	=1
0r	0r	0r	1f	1r
.	.	.	1g	1b-
=2	=2	=2	=2	=2
0r	0r	0r	1a	1cc
.	.	.	2g	1dd
.	.	.	2b-	.
=3	=3	=3	=3	=3
0r	0r	0r	2a	2cc
.	.	.	2.g	2ee-
.	.	.	.	2dd
.	.	.	4f	.
.	.	.	[2e-	[2cc
=4	=4	=4	=4	=4
1r	0r	0r	2e-]	4cc]
.	.	.	.	4b-
.	.	.	2d	1b-
1F	.	.	2c	.
.	.	.	[2d	2a
=5	=5	=5	=5	=5
1G	0r	1B-	4d]	1dd
.	.	.	4G	.
.	.	.	1g	.
1A	.	1c	.	1cc
.	.	.	2f#	.
=6	=6	=6	=6	=6
2G	0r	1d	2g	1b-
2B-	.	.	1f	.
2A	.	2c	.	1r
[2G	.	2e-	2g	.
=7	=7	=7	=7	=7
4G]	0r	2d	1.g	1r
4F	.	.	.	.
1E-	.	2.c	.	.
.	.	.	.	1b-
.	.	4B-	.	.
2D	.	[2B-	2f	.
=8	=8	=8	=8	=8
1C	0r	2B-]	1e-	1cc
.	.	2A	.	.
4BB-	.	1B-	2d	1dd
4C	.	.	.	.
4D	.	.	2b-	.
4E	.	.	.	.
=9	=9	=9	=9	=9
2F	0r	2r	2a	2cc
2C	.	2c	2.g	2ee-
2D	.	2B-	.	2dd
.	.	.	4f	.
2F	.	2A	[2f	[2cc
=10	=10	=10	=10	=10
1G	0r	1B-	2f]	4cc]
.	.	.	.	4b-
.	.	.	2e	1b-
1F	.	1c	2.f	.
.	.	.	.	2a
.	.	.	4e-	.
=11	=11	=11	=11	=11
1BB-	0F	1f	2d	2b-
.	.	.	1b-	1dd
1r	.	1f	.	.
.	.	.	2a	[2cc
=12	=12	=12	=12	=12
1r	1G	1d	2.g	2cc]
.	.	.	.	2b
.	.	.	4f	.
1C	1G	[1c	4e	1cc
.	.	.	4d	.
.	.	.	2e	.
=13	=13	=13	=13	=13
2.F	1A	1c]	2.f	2r
.	.	.	.	2cc
4E	.	.	4g	.
2D	1A	2r	[1a	2ff
2C	.	2e	.	2ee
=14	=14	=14	=14	=14
2D	0A	2f	2a]	2dd
2A	.	2e	2a	2cc#
1D	.	2.d	1f	1dd
.	.	4c	.	.
=15	=15	=15	=15	=15
2.E-	1G	2B-	1g	2r
.	.	4c	.	2g
4D	.	4d	.	.
1C	1G	1e-	1g	2cc
.	.	.	.	2cc
=16	=16	=16	=16	=16
1G	0B-	2d	2r	2.b-
.	.	2d	2g	.
.	.	.	.	4cc
2r	.	2d	2f	1dd
2G	.	2B-	2d	.
=17	=17	=17	=17	=17
2F	0A	2c	1f	0r
2D	.	2.F	.	.
1F	.	.	2c	.
.	.	4G	.	.
.	.	4A	2d	.
.	.	4B-	.	.
=18	=18	=18	=18	=18
2C	0G	2c	2e-	0r
2D	.	1B-	1d	.
1E-	.	.	.	.
.	.	4A	2c	.
.	.	4G	.	.
=19	=19	=19	=19	=19
2.D	0F	2A	1d	1r
.	.	2A	.	.
4C	.	.	.	.
4BB-	.	1B-	2r	1dd
4C	.	.	.	.
4D	.	.	2b-	.
4E	.	.	.	.
=20	=20	=20	=20	=20
0F	0r	2r	2a	2cc
.	.	2d	2f	2a
.	.	2c	1a	1cc
.	.	2A	.	.
=21	=21	=21	=21	=21
0r	0r	1c	2.e	2g
.	.	.	.	2a
.	.	.	4f	.
.	.	2G	2g	2b-
.	.	2A	2f	[2a
=22	=22	=22	=22	=22
0r	0G	0B-	1d	2a]
.	.	.	.	4g
.	.	.	.	4f
.	.	.	[1d	1g
=23	=23	=23	=23	=23
1D	0F	2A	1d]	2a
.	.	2f	.	2dd
1F	.	2f	2r	2cc
.	.	2f	2a	2a
=24	=24	=24	=24	=24
1C	1G	1e	2g	2cc
.	.	.	2e	4g
.	.	.	.	4a
2r	1G	1d	2g	4b-
.	.	.	.	4cc
2G	.	.	4d	4dd
.	.	.	4e	4cc
=25	=25	=25	=25	=25
2F	1A	2r	4f	4dd
.	.	.	4g	4ee
2D	.	2d	4a	1ff
.	.	.	4g	.
1F	1A	2c	4a	.
.	.	.	4b-	.
.	.	2A	[2cc	2ff
=26	=26	=26	=26	=26
1C	0G	2c	2cc]	1ee-
.	.	4G	2cc	.
.	.	4A	.	.
2.G	.	4B-	1b-	1dd
.	.	4c	.	.
.	.	2d	.	.
4F	.	.	.	.
=27	=27	=27	=27	=27
2E-	0G	2e-	1g	2r
2BB-	.	2d	.	1dd
1C	.	1e-	2r	.
.	.	.	[2g	2cc
=28	=28	=28	=28	=28
1D	0r	1d	2g]	2b-
.	.	.	2f	2a
2r	.	1G	1b-	2.g
[2d	.	.	.	.
.	.	.	.	4f
=29	=29	=29	=29	=29
2d]	0r	1A	1a	1e
2c	.	.	.	.
2B-	.	1r	2g	2d
2A	.	.	2f	2a
=30	=30	=30	=30	=30
2.G	0G	2r	2e-	1b-
.	.	1d	2d	.
4F	.	.	.	.
1E-	.	.	1r	1g
.	.	2c	.	.
=31	=31	=31	=31	=31
1D	0F	2B-	2r	1dd
.	.	4A	1dd	.
.	.	4G	.	.
1r	.	1A	.	2.ff
.	.	.	2cc	.
.	.	.	.	4ee
=32	=32	=32	=32	=32
0r	0G	2B-	2.b-	2dd
.	.	2c	.	2cc
.	.	.	4a	.
.	.	2d	2g	1b-
.	.	2d	2f	.
=33	=33	=33	=33	=33
0r	0A	2c	2e	0a
.	.	2f	1d	.
.	.	2e	.	.
.	.	2f	2c	.
=34	=34	=34	=34	=34
2r	0G	1g	2.d	1.b-
1d	.	.	.	.
.	.	.	4c	.
.	.	[1d	2B-	.
2c	.	.	2A	2cc
=35	=35	=35	=35	=35
2B-	[0G	2d]	1G	0dd
2A	.	2c	.	.
2.G	.	2B-	[1g	.
.	.	2A	.	.
4F	.	.	.	.
=36	=36	=36	=36	=36
2E-	0G]	4G	2g]	1.gg
.	.	4A	.	.
2D	.	4B-	2f	.
.	.	8A	.	.
.	.	8B-	.	.
[1C	.	2c	2e-	.
.	.	2d	2d	2ff
=37	=37	=37	=37	=37
0C]	[0G	0e-	1c	2ee-
.	.	.	.	2dd
.	.	.	1g	1cc
=38	=38	=38	=38	=38
0G	0G]	0d	0g	0b
==	==	==	==	==
*-	*-	*-	*-	*-
!!!CDT: 1525/^1526/-1594/2/2
!!!OCY: Italia
!!!AGN: Mass (Tenor)
!!!AST: renaissance, vocal
!!!ASW: Prayer
!!!PWK: Masses, Book 10
!!!RNB: Cadence finals: C
!!!YOR: Le Opere Complete, v. 27, p. 226
!!!YOO: Rome, Italy: Fratelli Scalera
!!!END: 1992//
!!!EED: John Miller
!!!YEC: Copyright 2000, John Miller
!!!YEN: United States of America
!!!YEM: Rights to all derivative electronic formats reserved.
!!!YEM: Refer to licensing agreement for further details.
!!!YEM: This file must be accompanied by the licensing agreement.
!!!YEM: A copy of the licensing agreement may be found at http://www.music-cog.ohio-state.edu/HumdrumDatabases/Palestrina/license.txt
!!!EMD: converted to Humdrum by Bret Aarden
